lib/svgs/warning-o.svg

<?xml version="1.0" encoding="UTF-8"?>
<svg width="16px" height="17px" viewBox="0 0 16 17" version="1.1" xmlns="http://www.w3.org/2000/svg" xmlns:xlink="http://www.w3.org/1999/xlink">
    <!-- Generator: sketchtool 51.3 (57544) - http://www.bohemiancoding.com/sketch -->
    <title>warning-o</title>
    <desc>Created with sketchtool.</desc>
    <defs></defs>
    <g id="Icons" stroke="none" stroke-width="1" fill="none" fill-rule="evenodd">
        <g id="Deprecated" transform="translate(-42.000000, -300.000000)" fill="#000000">
            <g id="warning-o" transform="translate(42.000000, 300.000000)">
                <path d="M8,0.174203726 C12.418,0.174203726 16,3.75620373 16,8.17420373 C16,12.5922037 12.418,16.1742037 8,16.1742037 C3.582,16.1742037 0,12.5922037 0,8.17420373 C0,3.75620373 3.582,0.174203726 8,0.174203726 Z M8,1.37420373 C4.25,1.37420373 1.2,4.42420373 1.2,8.17420373 C1.2,11.9242037 4.25,14.9742037 8,14.9742037 C11.75,14.9742037 14.8,11.9242037 14.8,8.17420373 C14.8,4.42420373 11.75,1.37420373 8,1.37420373 Z M8.8,11.7178037 C8.8,12.1598037 8.442,12.5178037 8,12.5178037 C7.558,12.5178037 7.2,12.1598037 7.2,11.7178037 C7.2,11.2758037 7.558,10.9178037 8,10.9178037 C8.442,10.9178037 8.8,11.2758037 8.8,11.7178037 Z M8.0006,9.83060373 C7.6686,9.83060373 7.4006,9.56160373 7.4006,9.23060373 L7.4006,4.43060373 C7.4006,4.09960373 7.6686,3.83060373 8.0006,3.83060373 C8.3326,3.83060373 8.6006,4.09960373 8.6006,4.43060373 L8.6006,9.23060373 C8.6006,9.56160373 8.3326,9.83060373 8.0006,9.83060373 Z"></path>
            </g>
        </g>
    </g>
</svg>

<svg xmlns="http://www.w3.org/2000/svg" viewBox="0 0 16 17">
    <path d="M8 .174a8 8 0 1 1 0 16 8 8 0 0 1 0-16zm0 1.2c-3.75 0-6.8 3.05-6.8 6.8s3.05 6.8 6.8 6.8 6.8-3.05 6.8-6.8-3.05-6.8-6.8-6.8zm.8 10.344a.8.8 0 1 1-1.6 0 .8.8 0 0 1 1.6 0zM8 9.83a.6.6 0 0 1-.6-.6v-4.8a.6.6 0 1 1 1.2 0v4.8a.6.6 0 0 1-.6.6z"/>
</svg>
